X:1
T:Een kint gheboren
T:André Vierendeels
T:Source : Traditional from Flanders Editor : André Vierendeels (05/09/17).
T:Notes : Melody by Hoffmann von Fallersleben Text Middle Flemish
T:Een kint gheboren 2 
T:©
T:©
C:André Vierendeels
Z:©
%%score [ 1 2 3 ]
L:1/8
Q:1/4=96
M:3/4
K:C
V:1 treble nm="Soprano" snm="S"
V:2 treble-8 nm="Alto" snm="A"
V:3 treble-8 nm="Bariton" snm="Bar"
V:1
 z2 z2 D2 | F4 G2 | A2- A2 c2 | A4 G2 | F4 A2 | c4 A2 | F2 F2 G2 | F2 E2- E2 | D4 F2 | A4 G2 | %10
w: 1. Een|kint ghe-|bo- ren in|Beth- le-|hem, ver-|bli- det|al- le Je-|ru- sa- *|le. A-|mor, a-|
w: 2. Sie|lei- de|in _ een|crib- be-|kijn des|e- wi-|gen Va- ters|son- ne- *|kijn. *||
 G4 _B2 | A4 G2 | F4 G2 | c4 F2 | A4 A2 | G4 A2 | A6 |] %17
w: mor, a-|mor, a-|mor, quam|dul- cis|est a-|mor, a-|mor.|
w: |||||||
V:2
 A,6 | D4 C2 | C2- C2 E2 | F4 D2 | A,4 C2 | E4 D2 | D2 A,2 CB, | A,2 D2 C2 | A,4 D2 | D4 D2 | %10
w: 1. Een|kint ghe-|bo- ren in|Beth- le-|hem, ver-|bli- det|al- le Je- *|ru- * sa-|lem. *||
w: 3. Die|En- ghe-|len son- ghen|doe- ter-|tijt, die|her- der-|kens wa- ren _|me- de ver-|blijt. *||
 C4 D2 | F4 E2 | D4 D2 | G4 A2 | F4 D2 | E4 E2 | D6 |] %17
w: |||||||
w: |||||||
V:3
 D6 | D4 E2 | F2- F2 C2 | D4 G2 | D4 F2 | C4 F2 | D2 D2 G2 | D2 A2- A2 | D4 D2 | D4 G2 | E4 G2 | %11
w: 1. Een|kint ghe-|bo- ren in|Beth- le-|hem, ver-|bli- det|al- le Je-|ru- sa- *|lem. *|||
w: 4. Drie|co- gen|qua- men uut|Oo- sten-|lan- ende|brach- ten|mit hem haer|of- fe- *|rand'. *|||
 F4 C2 | D4 G2 | E4 D2 | D4 F2 | C2 E2 C2 | D6 |] %17
w: ||||||
w: ||||||

